src/icons/solid/symbols/ticket.svg

<svg width="24" height="24" viewBox="0 0 24 24" fill="none" xmlns="http://www.w3.org/2000/svg">
<g clip-path="url(#clip0_4704_938)">
<path d="M20.1462 13.854L22.4369 11.5634C22.79 11.2102 22.9809 10.733 23 10.2367C23 9.73083 22.7996 9.2536 22.4464 8.90046L20.4039 6.85794C20.2703 6.72432 20.0889 6.64796 19.898 6.64796C19.7072 6.64796 19.5258 6.72432 19.3922 6.85794C19.0772 7.17291 18.6668 7.34471 18.2278 7.35425C17.7983 7.35425 17.3974 7.20154 17.092 6.89612C16.7866 6.5907 16.6338 6.18983 16.6338 5.76033C16.6338 5.32128 16.8152 4.92041 17.1302 4.60545C17.4165 4.31911 17.4069 3.87052 17.1302 3.59373L15.0781 1.54167C14.3527 0.816292 13.1501 0.816292 12.4152 1.56076L1.56312 12.4224C1.20998 12.7755 1.00954 13.2623 1 13.749C1 14.2644 1.19089 14.7321 1.54403 15.0948L3.58655 17.1373C3.72017 17.271 3.90152 17.3473 4.09241 17.3473C4.2833 17.3473 4.46464 17.271 4.59826 17.1373C5.23774 16.4979 6.26855 16.4788 6.88894 17.0992C7.50933 17.7291 7.49978 18.7503 6.85076 19.3898C6.56443 19.6762 6.57397 20.1248 6.85076 20.4015L8.90282 22.4536C9.6282 23.179 10.8308 23.179 11.5657 22.4345L20.1271 13.854H20.1462ZM10.6304 5.369L11.6325 4.34775L19.6403 12.3365L18.6382 13.3577L10.6304 5.369Z" fill="#3C3B44"/>
</g>
<defs>
<clipPath id="clip0_4704_938">
<rect width="24" height="24" fill="white"/>
</clipPath>
</defs>
</svg>

<svg xmlns="http://www.w3.org/2000/svg" width="24" height="24" fill="none" viewBox="0 0 24 24"><g clip-path="url(#a)"><path fill="currentColor" d="m20.146 13.854 2.29-2.29c.354-.354.545-.831.564-1.327 0-.506-.2-.983-.554-1.337l-2.042-2.042a.715.715 0 0 0-1.012 0 1.68 1.68 0 0 1-1.164.496c-.43 0-.83-.152-1.136-.458a1.58 1.58 0 0 1-.458-1.136c0-.439.181-.84.496-1.155a.71.71 0 0 0 0-1.011l-2.052-2.052a1.884 1.884 0 0 0-2.663.019L1.563 12.422A1.95 1.95 0 0 0 1 13.749c0 .515.19.983.544 1.346l2.043 2.042a.715.715 0 0 0 1.011 0c.64-.64 1.67-.658 2.29-.038.621.63.612 1.651-.037 2.29a.71.71 0 0 0 0 1.012l2.052 2.053a1.884 1.884 0 0 0 2.663-.02l8.561-8.58zM10.63 5.369l1.002-1.021 8.008 7.988-1.002 1.022z"/></g><defs><clipPath id="a"><path fill="currentColor" d="M0 0h24v24H0z"/></clipPath></defs></svg>
